; generated by PrusaSlicer 2.6.1+win64 on 2023-09-25 at 19:53:28 UTC


;
;

;
;
; 

; external perimeters extrusion width = 0.40mm
; perimeters extrusion width = 0.40mm
; infill extrusion width = 0.40mm
; solid infill extrusion width = 0.40mm
; top infill extrusion width = 0.40mm
; first layer extrusion width = 0.45mm

M73 P0 R39
;TYPE:Custom
M190 S0 ; Prevents prusaslicer from prepending m190 to the gcode interfering with the macro
M109 S0 ; Prevents prusaslicer from prepending m109 to the gcode interfering with the macro
SET_GCODE_VARIABLE MACRO=RatOS VARIABLE=relative_extrusion VALUE=True
START_PRINT EXTRUDER_TEMP=250 BED_TEMP=100
;enable this if you have a BTT Smart Filament Sensor
SET_FILAMENT_SENSOR SENSOR=my_sensor ENABLE=0
G21 ; set units to millimeters
G90 ; use absolute coordinates
M83 ; use relative distances for extrusion
; Filament gcode
SET_GCODE_OFFSET Z=0.0
SET_PRESSURE_ADVANCE ADVANCE=0.03
M107
;LAYER_CHANGE
;Z:0.2
;HEIGHT:0.2
;BEFORE_LAYER_CHANGE
;0.2
G92 E0
;


G1 Z.2 F15000
;AFTER_LAYER_CHANGE
;0.2

G1 E-.7 F2400
G1 X197.617 Y98.273 F15000
M73 P0 R38
G1 E.7 F2400
M204 S1000
;TYPE:Skirt/Brim
;WIDTH:0.45
G1 X198.739 Y96.676 E.06474
G1 X200.404 Y95.656 E.06477
G1 X202.035 Y95.371 E.05492
G1 X232.035 Y95.371 E.99516
G1 X233.947 Y95.767 E.06477
G1 X235.544 Y96.889 E.06474
G1 X236.565 Y98.553 E.06476
G1 X236.849 Y100.185 E.05495
G1 X236.849 Y130.185 E.99516
G1 X236.454 Y132.097 E.06476
G1 X235.331 Y133.694 E.06476
G1 X233.667 Y134.714 E.06474
G1 X232.035 Y134.999 E.05496
G1 X202.035 Y134.999 E.99516
G1 X200.123 Y134.603 E.06477
G1 X198.526 Y133.481 E.06474
G1 X197.506 Y131.816 E.06477
G1 X197.221 Y130.185 E.05492
G1 X197.221 Y100.185 E.99516
G1 X197.605 Y98.332 E.06277
M204 S3000
G1 X198.011 Y98.42 F15000
M204 S1000
G1 F2400
G1 X198.024 Y98.36 E.00204
G1 X199.139 Y96.863 E.06192
G1 X200.774 Y95.962 E.06193
G1 X202.035 Y95.778 E.04227
G1 X232.035 Y95.778 E.99516
G1 X233.86 Y96.173 E.06194
G1 X235.357 Y97.289 E.06194
G1 X236.258 Y98.924 E.06193
G1 X236.442 Y100.185 E.04227
G1 X236.442 Y130.185 E.99516
G1 X236.047 Y132.01 E.06194
G1 X234.931 Y133.507 E.06194
G1 X233.296 Y134.408 E.06193
G1 X232.035 Y134.592 E.04227
G1 X202.035 Y134.592 E.99516
G1 X200.211 Y134.197 E.06191
G1 X198.713 Y133.081 E.06197
G1 X197.812 Y131.446 E.06193
G1 X197.628 Y130.185 E.04227
G1 X197.628 Y100.185 E.99516
G1 X197.998 Y98.479 E.05791
M204 S3000
; printing object 30cube.STL id:0 copy 0
;WIPE_START
G1 F12000
G1 X198.024 Y98.36 E-.02314
G1 X199.139 Y96.863 E-.35466
G1 X200.624 Y96.045 E-.3222
;WIPE_END
G1 X231.303 Y129.453 F15000
G1 E.7 F2400
M204 S1000
;TYPE:Perimeter
;WIDTH:0.449999
G1 X202.767 Y129.453 E.94659
G1 X202.767 Y100.917 E.94659
G1 X231.303 Y100.917 E.94659
G1 X231.303 Y129.393 E.9446
M204 S3000
G1 X231.71 Y129.86 F15000
M204 S1000
;TYPE:External perimeter
G1 F2400
G1 X202.36 Y129.86 E.97359
G1 X202.36 Y100.51 E.97359
G1 X231.71 Y100.51 E.97359
G1 X231.71 Y129.8 E.9716
M204 S3000
G1 X231.324 Y129.756 F15000
;WIPE_START
G1 F12000
G1 X228.026 Y129.808 E-.7
;WIPE_END
G1 X230.328 Y101.068 F15000
G1 E.7 F2400
M204 S1000
;TYPE:Solid infill
;WIDTH:0.450954
G1 X230.969 Y101.709 E.03014
G1 X230.969 Y102.286 E.01919
G1 X229.934 Y101.251 E.04867
G1 X229.357 Y101.251 E.01919
G1 X230.969 Y102.863 E.0758
G1 X230.969 Y103.44 E.01919
G1 X228.78 Y101.251 E.10293
G1 X228.203 Y101.251 E.01919
G1 X230.969 Y104.018 E.13009
G1 X230.969 Y104.595 E.01919
G1 X227.626 Y101.251 E.15722
G1 X227.048 Y101.251 E.01922
G1 X230.969 Y105.172 E.18437
G1 X230.969 Y105.749 E.01919
G1 X226.471 Y101.251 E.21151
G1 X225.894 Y101.251 E.01919
G1 X230.969 Y106.326 E.23864
G1 X230.969 Y106.903 E.01919
G1 X225.317 Y101.251 E.26577
G1 X224.74 Y101.251 E.01919
G1 X230.969 Y107.48 E.2929
G1 X230.969 Y108.057 E.01919
G1 X224.163 Y101.251 E.32003
G1 X223.586 Y101.251 E.01919
G1 X230.969 Y108.634 E.34716
G1 X230.969 Y109.211 E.01919
G1 X223.009 Y101.251 E.3743
G1 X222.432 Y101.251 E.01919
G1 X230.969 Y109.788 E.40143
G1 X230.969 Y110.365 E.01919
G1 X221.855 Y101.251 E.42856
G1 X221.278 Y101.251 E.01919
G1 X230.969 Y110.942 E.45569
G1 X230.969 Y111.519 E.01919
G1 X220.701 Y101.251 E.48282
G1 X220.124 Y101.251 E.01919
G1 X230.969 Y112.096 E.50995
G1 X230.969 Y112.673 E.01919
G1 X219.547 Y101.251 E.53709
G1 X218.97 Y101.251 E.01919
G1 X230.969 Y113.25 E.56422
G1 X230.969 Y113.827 E.01919
G1 X218.393 Y101.251 E.59135
G1 X217.816 Y101.251 E.01919
G1 X230.969 Y114.404 E.61848
G1 X230.969 Y114.981 E.01919
G1 X217.239 Y101.251 E.64561
M73 P1 R38
G1 X216.662 Y101.251 E.01919
G1 X230.969 Y115.558 E.67274
G1 X230.969 Y116.136 E.01922
G1 X216.085 Y101.251 E.6999
G1 X215.508 Y101.251 E.01919
G1 X230.969 Y116.713 E.72703
G1 X230.969 Y117.29 E.01919
G1 X214.93 Y101.251 E.75419
G1 X214.353 Y101.251 E.01919
G1 X230.969 Y117.867 E.78132
G1 X230.969 Y118.444 E.01919
G1 X213.776 Y101.251 E.80845
G1 X213.199 Y101.251 E.01919
G1 X230.969 Y119.021 E.83558
G1 X230.969 Y119.598 E.01919
G1 X212.622 Y101.251 E.86271
G1 X212.045 Y101.251 E.01919
G1 X230.969 Y120.175 E.88985
G1 X230.969 Y120.752 E.01919
G1 X211.468 Y101.251 E.91698
G1 X210.891 Y101.251 E.01919
G1 X230.969 Y121.329 E.94411
G1 X230.969 Y121.906 E.01919
G1 X210.314 Y101.251 E.97124
G1 X209.737 Y101.251 E.01919
G1 X230.969 Y122.483 E.99837
G1 X230.969 Y123.06 E.01919
G1 X209.16 Y101.251 E1.0255
G1 X208.583 Y101.251 E.01919
G1 X230.969 Y123.637 E1.05264
G1 X230.969 Y124.214 E.01919
G1 X208.006 Y101.251 E1.07977
G1 X207.429 Y101.251 E.01919
G1 X230.969 Y124.791 E1.1069
G1 X230.969 Y125.368 E.01919
G1 X206.852 Y101.251 E1.13403
G1 X206.275 Y101.251 E.01919
G1 X230.969 Y125.945 E1.16116
G1 X230.969 Y126.522 E.01919
G1 X205.698 Y101.251 E1.18829
G1 X205.121 Y101.251 E.01919
G1 X230.969 Y127.099 E1.21543
G1 X230.969 Y127.676 E.01919
G1 X204.544 Y101.251 E1.24256
G1 X203.967 Y101.251 E.01919
G1 X230.969 Y128.254 E1.26971
G1 X230.969 Y128.831 E.01919
G1 X203.39 Y101.251 E1.29684
G1 X203.101 Y101.251 E.00961
G1 X203.101 Y101.539 E.00958
G1 X230.681 Y129.119 E1.29687
G1 X230.104 Y129.119 E.01919
G1 X203.101 Y102.116 E1.26974
G1 X203.101 Y102.693 E.01919
G1 X229.527 Y129.119 E1.2426
G1 X228.95 Y129.119 E.01919
G1 X203.101 Y103.271 E1.21545
M73 P2 R38
G1 X203.101 Y103.848 E.01919
G1 X228.373 Y129.119 E1.18832
G1 X227.795 Y129.119 E.01922
G1 X203.101 Y104.425 E1.16116
G1 X203.101 Y105.002 E.01919
G1 X227.218 Y129.119 E1.13403
G1 X226.641 Y129.119 E.01919
G1 X203.101 Y105.579 E1.1069
G1 X203.101 Y106.156 E.01919
G1 X226.064 Y129.119 E1.07977
G1 X225.487 Y129.119 E.01919
G1 X203.101 Y106.733 E1.05264
G1 X203.101 Y107.31 E.01919
G1 X224.91 Y129.119 E1.0255
G1 X224.333 Y129.119 E.01919
G1 X203.101 Y107.887 E.99837
G1 X203.101 Y108.464 E.01919
G1 X223.756 Y129.119 E.97124
G1 X223.179 Y129.119 E.01919
G1 X203.101 Y109.041 E.94411
G1 X203.101 Y109.618 E.01919
G1 X222.602 Y129.119 E.91698
G1 X222.025 Y129.119 E.01919
G1 X203.101 Y110.195 E.88985
G1 X203.101 Y110.772 E.01919
G1 X221.448 Y129.119 E.86271
G1 X220.871 Y129.119 E.01919
G1 X203.101 Y111.349 E.83558
G1 X203.101 Y111.926 E.01919
G1 X220.294 Y129.119 E.80845
G1 X219.717 Y129.119 E.01919
G1 X203.101 Y112.503 E.78132
G1 X203.101 Y113.08 E.01919
G1 X219.14 Y129.119 E.75419
G1 X218.563 Y129.119 E.01919
G1 X203.101 Y113.657 E.72705
M73 P2 R37
G1 X203.101 Y114.234 E.01919
G1 X217.986 Y129.119 E.69992
G1 X217.409 Y129.119 E.01919
G1 X203.101 Y114.811 E.67279
G1 X203.101 Y115.388 E.01919
G1 X216.832 Y129.119 E.64566
G1 X216.255 Y129.119 E.01919
G1 X203.101 Y115.966 E.6185
G1 X203.101 Y116.543 E.01919
G1 X215.677 Y129.119 E.59135
G1 X215.1 Y129.119 E.01919
G1 X203.101 Y117.12 E.56422
G1 X203.101 Y117.697 E.01919
G1 X214.523 Y129.119 E.53709
G1 X213.946 Y129.119 E.01919
G1 X203.101 Y118.274 E.50995
G1 X203.101 Y118.851 E.01919
G1 X213.369 Y129.119 E.48282
G1 X212.792 Y129.119 E.01919
G1 X203.101 Y119.428 E.45569
G1 X203.101 Y120.005 E.01919
G1 X212.215 Y129.119 E.42856
G1 X211.638 Y129.119 E.01919
G1 X203.101 Y120.582 E.40143
G1 X203.101 Y121.159 E.01919
G1 X211.061 Y129.119 E.3743
G1 X210.484 Y129.119 E.01919
G1 X203.101 Y121.736 E.34716
G1 X203.101 Y122.313 E.01919
G1 X209.907 Y129.119 E.32003
G1 X209.33 Y129.119 E.01919
G1 X203.101 Y122.89 E.2929
G1 X203.101 Y123.467 E.01919
G1 X208.753 Y129.119 E.26577
G1 X208.176 Y129.119 E.01919
G1 X203.101 Y124.044 E.23864
G1 X203.101 Y124.621 E.01919
G1 X207.599 Y129.119 E.21151
G1 X207.022 Y129.119 E.01919
G1 X203.101 Y125.198 E.18437
G1 X203.101 Y125.775 E.01919
G1 X206.445 Y129.119 E.15724
G1 X205.868 Y129.119 E.01919
G1 X203.101 Y126.352 E.13011
G1 X203.101 Y126.929 E.01919
G1 X205.291 Y129.119 E.10298
G1 X204.714 Y129.119 E.01919
G1 X203.101 Y127.506 E.07585
G1 X203.101 Y128.084 E.01922
G1 X204.137 Y129.119 E.04869
G1 X203.56 Y129.119 E.01919
G1 X202.918 Y128.477 E.03019
M204 S3000
; stop printing object 30cube.STL id:0 copy 0
;LAYER_CHANGE
;Z:0.4
;HEIGHT:0.2
;BEFORE_LAYER_CHANGE
;0.4
G92 E0
;


G1 Z.4 F15000
;AFTER_LAYER_CHANGE
;0.4

M104 S243 ; set temperature
M140 S105 ; set bed temperature
G1 E-.7 F2400
G1 X197.221 Y128.477 F15000
G1 E.7 F2400
;TYPE:Skirt/Brim
;WIDTH:0.45
G1 F3000
G1 X197.221 Y100.185 E.9385
M73 P3 R37
G1 X197.617 Y98.273 E.06477
G1 X198.739 Y96.676 E.06474
G1 X200.404 Y95.656 E.06477
G1 X202.035 Y95.371 E.05492
G1 X232.035 Y95.371 E.99516
G1 X233.947 Y95.767 E.06477
G1 X235.544 Y96.889 E.06474
G1 X236.565 Y98.553 E.06476
G1 X236.849 Y100.185 E.05495
G1 X236.849 Y130.185 E.99516
G1 X236.454 Y132.097 E.06476
G1 X235.331 Y133.694 E.06476
G1 X233.667 Y134.714 E.06474
G1 X232.035 Y134.999 E.05496
G1 X202.035 Y134.999 E.99516
G1 X200.123 Y134.603 E.06477
G1 X198.526 Y133.481 E.06474
G1 X197.506 Y131.816 E.06477
G1 X197.221 Y130.185 E.05492
G1 X197.221 Y128.537 E.05467
G1 X197.628 Y128.537 F15000
G1 F3000
G1 X197.628 Y100.185 E.94049
G1 X198.024 Y98.36 E.06195
G1 X199.139 Y96.863 E.06192
G1 X200.774 Y95.962 E.06193
G1 X202.035 Y95.778 E.04227
G1 X232.035 Y95.778 E.99516
G1 X233.86 Y96.173 E.06194
G1 X235.357 Y97.289 E.06194
G1 X236.258 Y98.924 E.06193
G1 X236.442 Y100.185 E.04227
G1 X236.442 Y130.185 E.99516
G1 X236.047 Y132.01 E.06194
G1 X234.931 Y133.507 E.06194
G1 X233.296 Y134.408 E.06193
G1 X232.035 Y134.592 E.04227
G1 X202.035 Y134.592 E.99516
G1 X200.211 Y134.197 E.06191
G1 X198.713 Y133.081 E.06197
G1 X197.812 Y131.446 E.06193
G1 X197.628 Y130.185 E.04227
G1 X197.628 Y128.597 E.05268
; printing object 30cube.STL id:0 copy 0
;WIPE_START
G1 F12000
G1 X197.628 Y124.913 E-.7
;WIPE_END
G1 X231.478 Y129.628 F15000
G1 E.7 F2400
;TYPE:Perimeter
;WIDTH:0.399999
G1 F10081.802
G1 X202.592 Y129.628 E.84051
G1 X202.592 Y100.742 E.84051
G1 X231.478 Y100.742 E.84051
G1 X231.478 Y129.568 E.83876
G1 X231.835 Y129.985 F15000
;TYPE:External perimeter
G1 F7200
G1 X202.235 Y129.985 E.86128
G1 X202.235 Y100.385 E.86128
G1 X231.835 Y100.385 E.86128
G1 X231.835 Y129.925 E.85954
G1 X231.449 Y129.881 F15000
;WIPE_START
G1 F12000
G1 X228.151 Y129.932 E-.7
;WIPE_END
G1 X202.982 Y101.064 F15000
G1 E.7 F2400
M204 S4000
;TYPE:Solid infill
;WIDTH:0.486634
G1 F8113.334
G1 X202.943 Y101.025 E.00199
G1 X202.889 Y101.039 E.00202
G1 X202.875 Y101.092 E.00198
G1 X202.914 Y101.132 E.00202
G1 X202.968 Y101.117 E.00203
;WIDTH:0.399999
G1 F10080
G1 X202.885 Y101.688 E.01679
G1 X203.538 Y101.035 E.02687
G1 X204.043 Y101.035 E.01469
G1 X202.885 Y102.193 E.04765
G1 X202.885 Y102.698 E.01469
G1 X204.548 Y101.035 E.06843
G1 X205.053 Y101.035 E.01469
G1 X202.885 Y103.203 E.08921
G1 X202.885 Y103.708 E.01469
G1 X205.558 Y101.035 E.10999
G1 X206.063 Y101.035 E.01469
G1 X202.885 Y104.213 E.13077
G1 X202.885 Y104.718 E.01469
G1 X206.568 Y101.035 E.15156
G1 X207.073 Y101.035 E.01469
G1 X202.885 Y105.223 E.17234
G1 X202.885 Y105.728 E.01469
G1 X207.578 Y101.035 E.19312
G1 X208.083 Y101.035 E.01469
G1 X202.885 Y106.233 E.2139
G1 X202.885 Y106.738 E.01469
G1 X208.588 Y101.035 E.23468
G1 X209.093 Y101.035 E.01469
G1 X202.885 Y107.243 E.25546
G1 X202.885 Y107.747 E.01467
G1 X209.598 Y101.035 E.27622
G1 X210.103 Y101.035 E.01469
G1 X202.885 Y108.252 E.297
G1 X202.885 Y108.757 E.01469
G1 X210.608 Y101.035 E.31778
G1 X211.113 Y101.035 E.01469
G1 X202.885 Y109.262 E.33856
G1 X202.885 Y109.767 E.01469
G1 X211.618 Y101.035 E.35934
G1 X212.123 Y101.035 E.01469
G1 X202.885 Y110.272 E.38012
G1 X202.885 Y110.777 E.01469
G1 X212.628 Y101.035 E.4009
G1 X213.133 Y101.035 E.01469
G1 X202.885 Y111.282 E.42168
G1 X202.885 Y111.787 E.01469
G1 X213.638 Y101.035 E.44246
G1 X214.143 Y101.035 E.01469
G1 X202.885 Y112.292 E.46325
G1 X202.885 Y112.797 E.01469
G1 X214.648 Y101.035 E.48403
G1 X215.153 Y101.035 E.01469
G1 X202.885 Y113.302 E.50481
G1 X202.885 Y113.807 E.01469
G1 X215.658 Y101.035 E.52559
G1 X216.163 Y101.035 E.01469
G1 X202.885 Y114.312 E.54637
G1 X202.885 Y114.817 E.01469
G1 X216.668 Y101.035 E.56715
G1 X217.173 Y101.035 E.01469
G1 X202.885 Y115.322 E.58793
G1 X202.885 Y115.827 E.01469
G1 X217.678 Y101.035 E.60871
G1 X218.183 Y101.035 E.01469
G1 X202.885 Y116.332 E.62949
G1 X202.885 Y116.837 E.01469
G1 X218.688 Y101.035 E.65027
G1 X219.193 Y101.035 E.01469
G1 X202.885 Y117.342 E.67105
G1 X202.885 Y117.847 E.01469
G1 X219.698 Y101.035 E.69183
G1 X220.203 Y101.035 E.01469
G1 X202.885 Y118.352 E.71261
G1 X202.885 Y118.857 E.01469
G1 X220.707 Y101.035 E.73337
G1 X221.212 Y101.035 E.01469
G1 X202.885 Y119.362 E.75416
G1 X202.885 Y119.867 E.01469
G1 X221.717 Y101.035 E.77494
G1 X222.222 Y101.035 E.01469
G1 X202.885 Y120.372 E.79572
G1 X202.885 Y120.877 E.01469
G1 X222.727 Y101.035 E.8165
G1 X223.232 Y101.035 E.01469
G1 X202.885 Y121.382 E.83728
G1 X202.885 Y121.887 E.01469
G1 X223.737 Y101.035 E.85806
G1 X224.242 Y101.035 E.01469
G1 X202.885 Y122.392 E.87884
G1 X202.885 Y122.897 E.01469
G1 X224.747 Y101.035 E.89962
G1 X225.252 Y101.035 E.01469
G1 X202.885 Y123.402 E.9204
G1 X202.885 Y123.907 E.01469
G1 X225.757 Y101.035 E.94118
G1 X226.262 Y101.035 E.01469
G1 X202.885 Y124.412 E.96196
G1 X202.885 Y124.917 E.01469
G1 X226.767 Y101.035 E.98274
G1 X227.272 Y101.035 E.01469
G1 X202.885 Y125.422 E1.00352
G1 X202.885 Y125.927 E.01469
G1 X227.777 Y101.035 E1.0243
G1 X228.282 Y101.035 E.01469
G1 X202.885 Y126.432 E1.04509
G1 X202.885 Y126.937 E.01469
G1 X228.787 Y101.035 E1.06587
G1 X229.292 Y101.035 E.01469
G1 X202.885 Y127.442 E1.08665
G1 X202.885 Y127.947 E.01469
G1 X229.797 Y101.035 E1.10743
G1 X230.302 Y101.035 E.01469
G1 X202.885 Y128.452 E1.12821
G1 X202.885 Y128.957 E.01469
G1 X230.807 Y101.035 E1.14899
G1 X231.323 Y100.928 E.01533
;WIDTH:0.38292
G1 X231.252 Y100.908 E.00204
G1 X231.271 Y100.98 E.00206
G1 X231.312 Y100.969 E.00118
;WIDTH:0.399999
G1 X231.185 Y101.162 E.00672
G1 X203.012 Y129.335 E1.15932
G1 X202.819 Y129.461 E.00671
;WIDTH:0.38292
G1 X202.778 Y129.472 E.00118
G1 X202.759 Y129.401 E.00204
G1 X202.83 Y129.42 E.00204
;WIDTH:0.399999
G1 X203.517 Y129.335 E.02014
G1 X231.185 Y101.667 E1.13854
G1 X231.185 Y102.172 E.01469
G1 X204.022 Y129.335 E1.11776
G1 X204.527 Y129.335 E.01469
G1 X231.185 Y102.677 E1.09698
G1 X231.185 Y103.182 E.01469
G1 X205.032 Y129.335 E1.07619
G1 X205.537 Y129.335 E.01469
G1 X231.185 Y103.687 E1.05541
G1 X231.185 Y104.192 E.01469
G1 X206.042 Y129.335 E1.03463
G1 X206.547 Y129.335 E.01469
G1 X231.185 Y104.697 E1.01385
G1 X231.185 Y105.202 E.01469
G1 X207.052 Y129.335 E.99307
G1 X207.557 Y129.335 E.01469
G1 X231.185 Y105.707 E.97229
G1 X231.185 Y106.212 E.01469
G1 X208.062 Y129.335 E.95151
G1 X208.567 Y129.335 E.01469
G1 X231.185 Y106.717 E.93073
G1 X231.185 Y107.221 E.01467
G1 X209.072 Y129.335 E.90997
G1 X209.577 Y129.335 E.01469
G1 X231.185 Y107.726 E.88919
G1 X231.185 Y108.231 E.01469
G1 X210.082 Y129.335 E.86841
G1 X210.587 Y129.335 E.01469
G1 X231.185 Y108.736 E.84763
G1 X231.185 Y109.241 E.01469
G1 X211.092 Y129.335 E.82685
G1 X211.597 Y129.335 E.01469
G1 X231.185 Y109.746 E.80607
G1 X231.185 Y110.251 E.01469
G1 X212.102 Y129.335 E.78529
M73 P4 R37
G1 X212.607 Y129.335 E.01469
G1 X231.185 Y110.756 E.7645
G1 X231.185 Y111.261 E.01469
G1 X213.112 Y129.335 E.74372
G1 X213.617 Y129.335 E.01469
G1 X231.185 Y111.766 E.72294
G1 X231.185 Y112.271 E.01469
G1 X214.122 Y129.335 E.70216
G1 X214.627 Y129.335 E.01469
G1 X231.185 Y112.776 E.68138
