; generated by PrusaSlicer 2.7.0+win64 on 2023-12-04 at 21:56:22 UTC


;
;

;
;
; 

; external perimeters extrusion width = 0.40mm
; perimeters extrusion width = 0.40mm
; infill extrusion width = 0.40mm
; solid infill extrusion width = 0.40mm
; top infill extrusion width = 0.40mm
; first layer extrusion width = 0.45mm

M73 P0 R46

; printing object Shape-Box id:0 copy 0
; stop printing object Shape-Box id:0 copy 0

;TYPE:Custom
M190 S0 ; Prevents prusaslicer from prepending m190 to the gcode interfering with the macro
M109 S0 ; Prevents prusaslicer from prepending m109 to the gcode interfering with the macro
SET_GCODE_VARIABLE MACRO=RatOS VARIABLE=relative_extrusion VALUE=True
START_PRINT EXTRUDER_TEMP=250 BED_TEMP=105
;enable this if you have a BTT Smart Filament Sensor
SET_FILAMENT_SENSOR SENSOR=my_sensor ENABLE=0
G21 ; set units to millimeters
G90 ; use absolute coordinates
M83 ; use relative distances for extrusion
; Filament gcode
SET_GCODE_OFFSET Z=0.0
SET_PRESSURE_ADVANCE ADVANCE=0.05
M107
;LAYER_CHANGE
;Z:0.3
;HEIGHT:0.3
;BEFORE_LAYER_CHANGE
;0.3
G92 E0
;


G1 Z.3 F15000
;AFTER_LAYER_CHANGE
;0.3

G1 E-.7 F2400
G1 X220.379 Y220.931 F15000
G1 Z.3
G1 E.7 F2400
M204 S1000
;TYPE:Skirt/Brim
;WIDTH:0.45
G1 F4800
G1 X222.114 Y219.562 E.1063
G1 X225 Y218.843 E.14305
G1 X275 Y218.843 E2.40483
G1 X277.174 Y219.24 E.10629
G1 X279.069 Y220.379 E.10634
G1 X280.438 Y222.114 E.1063
G1 X281.157 Y225 E.14305
G1 X281.157 Y275 E2.40483
G1 X280.76 Y277.174 E.10629
G1 X279.621 Y279.069 E.10634
G1 X277.886 Y280.438 E.1063
G1 X275 Y281.157 E.14305
G1 X225 Y281.157 E2.40483
G1 X222.826 Y280.76 E.10629
G1 X220.931 Y279.621 E.10634
G1 X219.562 Y277.886 E.1063
G1 X218.843 Y275 E.14305
G1 X218.843 Y225 E2.40483
G1 X219.24 Y222.826 E.10629
G1 X220.348 Y220.983 E.10343
M204 S3000
G1 X220.69 Y221.197 F15000
M204 S1000
G1 F4800
G1 X220.76 Y221.084 E.00639
G1 X222.478 Y219.809 E.1029
G1 X225 Y219.229 E.12447
G1 X275 Y219.229 E2.40483
G1 X277.102 Y219.625 E.10288
G1 X278.916 Y220.76 E.10292
G1 X280.191 Y222.478 E.1029
G1 X280.771 Y225 E.12447
G1 X280.771 Y275 E2.40483
G1 X280.375 Y277.102 E.10288
G1 X279.24 Y278.916 E.10292
G1 X277.522 Y280.191 E.1029
G1 X275 Y280.771 E.12447
G1 X225 Y280.771 E2.40483
G1 X222.898 Y280.375 E.10288
G1 X221.084 Y279.24 E.10292
G1 X219.809 Y277.522 E.1029
G1 X219.229 Y275 E.12447
G1 X219.229 Y225 E2.40483
G1 X219.625 Y222.898 E.10288
G1 X220.658 Y221.248 E.09363
M204 S3000
G1 X220.994 Y221.468 F15000
M204 S1000
G1 F4800
G1 X221.141 Y221.243 E.01293
G1 X222.84 Y220.067 E.09938
G1 X225 Y219.614 E.10615
G1 X275 Y219.614 E2.40483
G1 X277.028 Y220.011 E.09939
G1 X278.757 Y221.141 E.09934
G1 X279.933 Y222.84 E.09938
G1 X280.386 Y225 E.10615
G1 X280.386 Y275 E2.40483
G1 X279.989 Y277.028 E.09939
G1 X278.859 Y278.757 E.09934
G1 X277.16 Y279.933 E.09938
G1 X275 Y280.386 E.10615
G1 X225 Y280.386 E2.40483
G1 X222.972 Y279.989 E.09939
G1 X221.243 Y278.859 E.09934
G1 X220.067 Y277.16 E.09938
G1 X219.614 Y275 E.10615
G1 X219.614 Y225 E2.40483
G1 X220.011 Y222.972 E.09939
G1 X220.962 Y221.518 E.08356
M204 S3000
; printing object Shape-Box id:0 copy 0
;WIPE_START
G1 F12000
G1 X220.994 Y221.468 E-.01128
G1 X221.141 Y221.243 E-.05107
G1 X222.84 Y220.067 E-.3926
G1 X224.102 Y219.802 E-.24505
;WIPE_END
G1 X274.289 Y274.289 F15000
G1 E.7 F2400
M204 S1000
;TYPE:Perimeter
;WIDTH:0.45
G1 F4800
G1 X225.711 Y274.289 E2.33643
G1 X225.711 Y225.711 E2.33643
G1 X274.289 Y225.711 E2.33643
G1 X274.289 Y250 E1.16822
G1 X274.289 Y274.229 E1.16533
M204 S3000
G1 X274.675 Y274.675 F15000
M204 S1000
;TYPE:External perimeter
G1 F4800
G1 X225.325 Y274.675 E2.37356
G1 X225.325 Y225.325 E2.37356
G1 X274.675 Y225.325 E2.37356
G1 X274.675 Y250 E1.18678
G1 X274.675 Y274.615 E1.1839
M204 S3000
;WIPE_START
G1 F12000
G1 X274.675 Y274.675 E-.0114
G1 X271.051 Y274.675 E-.6886
;WIPE_END
G1 X273.366 Y225.853 F15000
G1 E.7 F2400
M204 S1000
;TYPE:Solid infill
;WIDTH:0.450548
G1 F4800
G1 X273.973 Y226.46 E.04135
G1 X273.973 Y227.007 E.02635
G1 X272.993 Y226.027 E.06675
G1 X272.447 Y226.027 E.0263
G1 X273.973 Y227.553 E.10394
G1 X273.973 Y228.099 E.0263
G1 X271.901 Y226.027 E.14114
G1 X271.355 Y226.027 E.0263
G1 X273.973 Y228.645 E.17833
G1 X273.973 Y229.191 E.0263
G1 X270.809 Y226.027 E.21552
G1 X270.263 Y226.027 E.0263
G1 X273.973 Y229.737 E.25271
G1 X273.973 Y230.283 E.0263
G1 X269.717 Y226.027 E.2899
G1 X269.171 Y226.027 E.0263
G1 X273.973 Y230.829 E.32709
G1 X273.973 Y231.376 E.02635
G1 X268.624 Y226.027 E.36435
G1 X268.078 Y226.027 E.0263
G1 X273.973 Y231.922 E.40154
G1 X273.973 Y232.468 E.0263
G1 X267.532 Y226.027 E.43873
G1 X266.986 Y226.027 E.0263
G1 X273.973 Y233.014 E.47592
G1 X273.973 Y233.56 E.0263
G1 X266.44 Y226.027 E.51311
G1 X265.894 Y226.027 E.0263
G1 X273.973 Y234.106 E.5503
G1 X273.973 Y234.652 E.0263
G1 X265.348 Y226.027 E.5875
G1 X264.802 Y226.027 E.0263
G1 X273.973 Y235.198 E.62469
G1 X273.973 Y235.745 E.02635
G1 X264.255 Y226.027 E.66195
G1 X263.709 Y226.027 E.0263
G1 X273.973 Y236.291 E.69914
G1 X273.973 Y236.837 E.0263
G1 X263.163 Y226.027 E.73633
G1 X262.617 Y226.027 E.0263
G1 X273.973 Y237.383 E.77352
G1 X273.973 Y237.929 E.0263
G1 X262.071 Y226.027 E.81071
G1 X261.525 Y226.027 E.0263
G1 X273.973 Y238.475 E.8479
G1 X273.973 Y239.021 E.0263
G1 X260.979 Y226.027 E.88509
G1 X260.433 Y226.027 E.0263
G1 X273.973 Y239.567 E.92228
G1 X273.973 Y240.114 E.02635
G1 X259.886 Y226.027 E.95954
G1 X259.34 Y226.027 E.0263
G1 X273.973 Y240.66 E.99673
G1 X273.973 Y241.206 E.0263
G1 X258.794 Y226.027 E1.03392
G1 X258.248 Y226.027 E.0263
G1 X273.973 Y241.752 E1.07112
G1 X273.973 Y242.298 E.0263
G1 X257.702 Y226.027 E1.10831
G1 X257.156 Y226.027 E.0263
G1 X273.973 Y242.844 E1.1455
G1 X273.973 Y243.39 E.0263
G1 X256.61 Y226.027 E1.18269
G1 X256.064 Y226.027 E.0263
G1 X273.973 Y243.936 E1.21988
G1 X273.973 Y244.483 E.02635
G1 X255.517 Y226.027 E1.25714
G1 X254.971 Y226.027 E.0263
M73 P1 R46
G1 X273.973 Y245.029 E1.29433
G1 X273.973 Y245.575 E.0263
M73 P1 R45
G1 X254.425 Y226.027 E1.33152
G1 X253.879 Y226.027 E.0263
G1 X273.973 Y246.121 E1.36871
G1 X273.973 Y246.667 E.0263
G1 X253.333 Y226.027 E1.4059
G1 X252.787 Y226.027 E.0263
G1 X273.973 Y247.213 E1.44309
G1 X273.973 Y247.759 E.0263
G1 X252.241 Y226.027 E1.48028
G1 X251.695 Y226.027 E.0263
G1 X273.973 Y248.305 E1.51748
G1 X273.973 Y248.851 E.0263
G1 X251.149 Y226.027 E1.55467
G1 X250.602 Y226.027 E.02635
G1 X273.973 Y249.398 E1.59193
G1 X273.973 Y249.944 E.0263
G1 X250.056 Y226.027 E1.62912
G1 X249.51 Y226.027 E.0263
G1 X273.973 Y250.49 E1.66631
G1 X273.973 Y251.036 E.0263
G1 X248.964 Y226.027 E1.7035
G1 X248.418 Y226.027 E.0263
G1 X273.973 Y251.582 E1.74069
G1 X273.973 Y252.128 E.0263
G1 X247.872 Y226.027 E1.77788
G1 X247.326 Y226.027 E.0263
G1 X273.973 Y252.674 E1.81507
G1 X273.973 Y253.22 E.0263
G1 X246.78 Y226.027 E1.85226
G1 X246.233 Y226.027 E.02635
G1 X273.973 Y253.767 E1.88952
G1 X273.973 Y254.313 E.0263
G1 X245.687 Y226.027 E1.92671
G1 X245.141 Y226.027 E.0263
G1 X273.973 Y254.859 E1.9639
G1 X273.973 Y255.405 E.0263
G1 X244.595 Y226.027 E2.00109
G1 X244.049 Y226.027 E.0263
G1 X273.973 Y255.951 E2.03829
G1 X273.973 Y256.497 E.0263
G1 X243.503 Y226.027 E2.07548
G1 X242.957 Y226.027 E.0263
G1 X273.973 Y257.043 E2.11267
G1 X273.973 Y257.589 E.0263
G1 X242.411 Y226.027 E2.14986
G1 X241.864 Y226.027 E.02635
G1 X273.973 Y258.136 E2.18712
G1 X273.973 Y258.682 E.0263
G1 X241.318 Y226.027 E2.22431
G1 X240.772 Y226.027 E.0263
G1 X273.973 Y259.228 E2.2615
G1 X273.973 Y259.774 E.0263
G1 X240.226 Y226.027 E2.29869
G1 X239.68 Y226.027 E.0263
G1 X273.973 Y260.32 E2.33588
G1 X273.973 Y260.866 E.0263
G1 X239.134 Y226.027 E2.37307
G1 X238.588 Y226.027 E.0263
G1 X273.973 Y261.412 E2.41026
G1 X273.973 Y261.958 E.0263
G1 X238.042 Y226.027 E2.44746
G1 X237.495 Y226.027 E.02635
G1 X273.973 Y262.505 E2.48471
G1 X273.973 Y263.051 E.0263
G1 X236.949 Y226.027 E2.52191
G1 X236.403 Y226.027 E.0263
G1 X273.973 Y263.597 E2.5591
G1 X273.973 Y264.143 E.0263
G1 X235.857 Y226.027 E2.59629
G1 X235.311 Y226.027 E.0263
G1 X273.973 Y264.689 E2.63348
G1 X273.973 Y265.235 E.0263
G1 X234.765 Y226.027 E2.67067
G1 X234.219 Y226.027 E.0263
G1 X273.973 Y265.781 E2.70786
G1 X273.973 Y266.327 E.0263
G1 X233.673 Y226.027 E2.74505
G1 X233.126 Y226.027 E.02635
G1 X273.973 Y266.874 E2.78231
G1 X273.973 Y267.42 E.0263
G1 X232.58 Y226.027 E2.8195
G1 X232.034 Y226.027 E.0263
G1 X273.973 Y267.966 E2.85669
G1 X273.973 Y268.512 E.0263
M73 P2 R45
G1 X231.488 Y226.027 E2.89388
G1 X230.942 Y226.027 E.0263
G1 X273.973 Y269.058 E2.93107
G1 X273.973 Y269.604 E.0263
G1 X230.396 Y226.027 E2.96827
G1 X229.85 Y226.027 E.0263
G1 X273.973 Y270.15 E3.00546
G1 X273.973 Y270.696 E.0263
G1 X229.304 Y226.027 E3.04265
G1 X228.757 Y226.027 E.02635
G1 X273.973 Y271.243 E3.07991
G1 X273.973 Y271.789 E.0263
G1 X228.211 Y226.027 E3.1171
G1 X227.665 Y226.027 E.0263
G1 X273.973 Y272.335 E3.15429
G1 X273.973 Y272.881 E.0263
G1 X227.119 Y226.027 E3.19148
G1 X226.573 Y226.027 E.0263
G1 X273.973 Y273.427 E3.22867
G1 X273.973 Y273.973 E.0263
G1 X226.027 Y226.027 E3.26586
G1 X226.027 Y226.573 E.0263
G1 X273.427 Y273.973 E3.22867
G1 X272.881 Y273.973 E.0263
G1 X226.027 Y227.119 E3.19148
G1 X226.027 Y227.665 E.0263
G1 X272.335 Y273.973 E3.15429
G1 X271.789 Y273.973 E.0263
G1 X226.027 Y228.211 E3.1171
G1 X226.027 Y228.757 E.0263
G1 X271.243 Y273.973 E3.07991
G1 X270.696 Y273.973 E.02635
G1 X226.027 Y229.304 E3.04265
G1 X226.027 Y229.85 E.0263
G1 X270.15 Y273.973 E3.00546
G1 X269.604 Y273.973 E.0263
G1 X226.027 Y230.396 E2.96827
G1 X226.027 Y230.942 E.0263
G1 X269.058 Y273.973 E2.93107
G1 X268.512 Y273.973 E.0263
G1 X226.027 Y231.488 E2.89388
G1 X226.027 Y232.034 E.0263
G1 X267.966 Y273.973 E2.85669
G1 X267.42 Y273.973 E.0263
G1 X226.027 Y232.58 E2.8195
G1 X226.027 Y233.126 E.0263
G1 X266.874 Y273.973 E2.78231
G1 X266.328 Y273.973 E.0263
G1 X226.027 Y233.672 E2.74512
G1 X226.027 Y234.219 E.02635
G1 X265.781 Y273.973 E2.70786
G1 X265.235 Y273.973 E.0263
G1 X226.027 Y234.765 E2.67067
G1 X226.027 Y235.311 E.0263
G1 X264.689 Y273.973 E2.63348
G1 X264.143 Y273.973 E.0263
G1 X226.027 Y235.857 E2.59629
G1 X226.027 Y236.403 E.0263
G1 X263.597 Y273.973 E2.5591
G1 X263.051 Y273.973 E.0263
G1 X226.027 Y236.949 E2.52191
G1 X226.027 Y237.495 E.0263
G1 X262.505 Y273.973 E2.48471
G1 X261.959 Y273.973 E.0263
G1 X226.027 Y238.041 E2.44752
M73 P3 R45
G1 X226.027 Y238.588 E.02635
G1 X261.412 Y273.973 E2.41026
G1 X260.866 Y273.973 E.0263
G1 X226.027 Y239.134 E2.37307
G1 X226.027 Y239.68 E.0263
G1 X260.32 Y273.973 E2.33588
G1 X259.774 Y273.973 E.0263
G1 X226.027 Y240.226 E2.29869
G1 X226.027 Y240.772 E.0263
G1 X259.228 Y273.973 E2.2615
G1 X258.682 Y273.973 E.0263
G1 X226.027 Y241.318 E2.22431
G1 X226.027 Y241.864 E.0263
M73 P3 R44
G1 X258.136 Y273.973 E2.18712
G1 X257.59 Y273.973 E.0263
G1 X226.027 Y242.41 E2.14993
G1 X226.027 Y242.957 E.02635
G1 X257.043 Y273.973 E2.11267
G1 X256.497 Y273.973 E.0263
G1 X226.027 Y243.503 E2.07548
G1 X226.027 Y244.049 E.0263
G1 X255.951 Y273.973 E2.03829
G1 X255.405 Y273.973 E.0263
G1 X226.027 Y244.595 E2.00109
G1 X226.027 Y245.141 E.0263
G1 X254.859 Y273.973 E1.9639
G1 X254.313 Y273.973 E.0263
G1 X226.027 Y245.687 E1.92671
G1 X226.027 Y246.233 E.0263
G1 X253.767 Y273.973 E1.88952
G1 X253.221 Y273.973 E.0263
G1 X226.027 Y246.779 E1.85233
G1 X226.027 Y247.326 E.02635
G1 X252.674 Y273.973 E1.81507
G1 X252.128 Y273.973 E.0263
G1 X226.027 Y247.872 E1.77788
G1 X226.027 Y248.418 E.0263
G1 X251.582 Y273.973 E1.74069
G1 X251.036 Y273.973 E.0263
G1 X226.027 Y248.964 E1.7035
G1 X226.027 Y249.51 E.0263
G1 X250.49 Y273.973 E1.66631
G1 X249.944 Y273.973 E.0263
G1 X226.027 Y250.056 E1.62912
G1 X226.027 Y250.602 E.0263
G1 X249.398 Y273.973 E1.59193
G1 X248.852 Y273.973 E.0263
G1 X226.027 Y251.148 E1.55473
G1 X226.027 Y251.695 E.02635
G1 X248.305 Y273.973 E1.51748
G1 X247.759 Y273.973 E.0263
G1 X226.027 Y252.241 E1.48028
G1 X226.027 Y252.787 E.0263
G1 X247.213 Y273.973 E1.44309
G1 X246.667 Y273.973 E.0263
G1 X226.027 Y253.333 E1.4059
G1 X226.027 Y253.879 E.0263
G1 X246.121 Y273.973 E1.36871
G1 X245.575 Y273.973 E.0263
G1 X226.027 Y254.425 E1.33152
G1 X226.027 Y254.971 E.0263
G1 X245.029 Y273.973 E1.29433
G1 X244.483 Y273.973 E.0263
G1 X226.027 Y255.517 E1.25714
G1 X226.027 Y256.064 E.02635
G1 X243.936 Y273.973 E1.21988
G1 X243.39 Y273.973 E.0263
G1 X226.027 Y256.61 E1.18269
G1 X226.027 Y257.156 E.0263
G1 X242.844 Y273.973 E1.1455
G1 X242.298 Y273.973 E.0263
G1 X226.027 Y257.702 E1.10831
G1 X226.027 Y258.248 E.0263
G1 X241.752 Y273.973 E1.07112
G1 X241.206 Y273.973 E.0263
G1 X226.027 Y258.794 E1.03392
G1 X226.027 Y259.34 E.0263
G1 X240.66 Y273.973 E.99673
G1 X240.114 Y273.973 E.0263
G1 X226.027 Y259.886 E.95954
G1 X226.027 Y260.433 E.02635
G1 X239.567 Y273.973 E.92228
G1 X239.021 Y273.973 E.0263
G1 X226.027 Y260.979 E.88509
G1 X226.027 Y261.525 E.0263
G1 X238.475 Y273.973 E.8479
G1 X237.929 Y273.973 E.0263
G1 X226.027 Y262.071 E.81071
G1 X226.027 Y262.617 E.0263
G1 X237.383 Y273.973 E.77352
G1 X236.837 Y273.973 E.0263
G1 X226.027 Y263.163 E.73633
G1 X226.027 Y263.709 E.0263
G1 X236.291 Y273.973 E.69914
G1 X235.745 Y273.973 E.0263
G1 X226.027 Y264.255 E.66195
G1 X226.027 Y264.801 E.0263
G1 X235.199 Y273.973 E.62475
G1 X234.652 Y273.973 E.02635
G1 X226.027 Y265.348 E.5875
G1 X226.027 Y265.894 E.0263
G1 X234.106 Y273.973 E.5503
G1 X233.56 Y273.973 E.0263
G1 X226.027 Y266.44 E.51311
G1 X226.027 Y266.986 E.0263
G1 X233.014 Y273.973 E.47592
G1 X232.468 Y273.973 E.0263
G1 X226.027 Y267.532 E.43873
G1 X226.027 Y268.078 E.0263
G1 X231.922 Y273.973 E.40154
G1 X231.376 Y273.973 E.0263
G1 X226.027 Y268.624 E.36435
G1 X226.027 Y269.17 E.0263
G1 X230.83 Y273.973 E.32716
G1 X230.283 Y273.973 E.02635
G1 X226.027 Y269.717 E.2899
G1 X226.027 Y270.263 E.0263
G1 X229.737 Y273.973 E.25271
G1 X229.191 Y273.973 E.0263
G1 X226.027 Y270.809 E.21552
G1 X226.027 Y271.355 E.0263
G1 X228.645 Y273.973 E.17833
G1 X228.099 Y273.973 E.0263
G1 X226.027 Y271.901 E.14114
G1 X226.027 Y272.447 E.0263
G1 X227.553 Y273.973 E.10394
G1 X227.007 Y273.973 E.0263
G1 X226.027 Y272.993 E.06675
M73 P4 R44
G1 X226.027 Y273.539 E.0263
G1 X226.634 Y274.147 E.04138
M204 S3000
; stop printing object Shape-Box id:0 copy 0
;LAYER_CHANGE
;Z:0.6
;HEIGHT:0.3
;BEFORE_LAYER_CHANGE
;0.6
G92 E0
;


G1 Z.6 F15000
;AFTER_LAYER_CHANGE
;0.6

M140 S100 ; set bed temperature
; printing object Shape-Box id:0 copy 0
G1 E-.7 F2400
G1 X226.634 Y274.147 F15000
G1 X274.464 Y274.464
G1 E.7 F2400
;TYPE:Perimeter
;WIDTH:0.4
G1 F9600
G1 X225.536 Y274.464 E2.04814
G1 X225.536 Y225.536 E2.04814
G1 X274.464 Y225.536 E2.04814
G1 X274.464 Y250 E1.02407
G1 X274.464 Y274.404 E1.02156
G1 X274.8 Y274.8 F15000
;TYPE:External perimeter
G1 F8400
G1 X225.2 Y274.8 E2.07627
G1 X225.2 Y225.2 E2.07627
G1 X274.8 Y225.2 E2.07627
G1 X274.8 Y250 E1.03813
G1 X274.8 Y274.74 E1.03562
;WIPE_START
G1 F12000
G1 X274.8 Y274.8 E-.0114
G1 X271.176 Y274.8 E-.6886
;WIPE_END
G1 X225.902 Y225.838 F15000
G1 E.7 F2400
M204 S4000
;TYPE:Solid infill
;WIDTH:0.481427
G1 F11040
G1 X225.865 Y225.801 E.00272
G1 X225.815 Y225.815 E.0027
G1 X225.801 Y225.865 E.0027
G1 X225.838 Y225.902 E.00272
G1 X225.888 Y225.888 E.0027
;WIDTH:0.4
G1 X225.811 Y226.424 E.02267
G1 X226.424 Y225.811 E.03629
;WIDTH:0.404381
G1 X226.583 Y225.698 E.00827
G1 X226.542 Y225.709 E.0018
G1 X226.523 Y225.638 E.00312
G1 X226.594 Y225.657 E.00312
;WIDTH:0.4
G1 X226.899 Y225.811 E.0143
G1 X225.811 Y226.899 E.06441
G1 X225.811 Y227.374 E.01988
G1 X227.374 Y225.811 E.09253
G1 X227.848 Y225.811 E.01984
G1 X225.811 Y227.848 E.12059
G1 X225.811 Y228.323 E.01988
G1 X228.323 Y225.811 E.14871
G1 X228.798 Y225.811 E.01988
G1 X225.811 Y228.798 E.17683
G1 X225.811 Y229.272 E.01984
G1 X229.272 Y225.811 E.20489
G1 X229.747 Y225.811 E.01988
G1 X225.811 Y229.747 E.23301
G1 X225.811 Y230.222 E.01988
G1 X230.222 Y225.811 E.26113
G1 X230.696 Y225.811 E.01984
G1 X225.811 Y230.696 E.28919
G1 X225.811 Y231.171 E.01988
G1 X231.171 Y225.811 E.31731
G1 X231.645 Y225.811 E.01984
G1 X225.811 Y231.645 E.34537
G1 X225.811 Y232.12 E.01988
G1 X232.12 Y225.811 E.37349
G1 X232.595 Y225.811 E.01988
G1 X225.811 Y232.595 E.40161
G1 X225.811 Y233.069 E.01984
