; generated by PrusaSlicer 2.6.1+win64 on 2023-09-20 at 19:40:57 UTC


;
;

;
;
; 

; external perimeters extrusion width = 0.40mm
; perimeters extrusion width = 0.40mm
; infill extrusion width = 0.40mm
; solid infill extrusion width = 0.40mm
; top infill extrusion width = 0.40mm
; first layer extrusion width = 0.45mm

; external perimeters extrusion width = 0.40mm
; perimeters extrusion width = 0.40mm
; infill extrusion width = 0.40mm
; solid infill extrusion width = 0.40mm
; top infill extrusion width = 0.40mm
; first layer extrusion width = 0.45mm

; external perimeters extrusion width = 0.40mm
; perimeters extrusion width = 0.40mm
; infill extrusion width = 0.40mm
; solid infill extrusion width = 0.40mm
; top infill extrusion width = 0.40mm
; first layer extrusion width = 0.45mm

M73 P0 R89
M73 C81
;TYPE:Custom
M190 S0 ; Prevents prusaslicer from prepending m190 to the gcode interfering with the macro
M109 S0 ; Prevents prusaslicer from prepending m109 to the gcode interfering with the macro
SET_GCODE_VARIABLE MACRO=RatOS VARIABLE=relative_extrusion VALUE=True
START_PRINT EXTRUDER_TEMP=240 BED_TEMP=70
;enable this if you have a BTT Smart Filament Sensor
SET_FILAMENT_SENSOR SENSOR=my_sensor ENABLE=0
G21 ; set units to millimeters
G90 ; use absolute coordinates
M83 ; use relative distances for extrusion
; Filament gcode
SET_GCODE_OFFSET Z=0
SET_PRESSURE_ADVANCE ADVANCE=0.05
M107
;LAYER_CHANGE
;Z:0.2
;HEIGHT:0.2
;BEFORE_LAYER_CHANGE
;0.2
G92 E0
;


G1 E-1.2 F2400
G1 Z.2 F15000
;AFTER_LAYER_CHANGE
;0.2

G1 X80.105 Y34.654
G1 E1.2 F2400
M204 S1000
;TYPE:Skirt/Brim
;WIDTH:0.45
G1 F3600
G1 X81.038 Y32.496 E.07481
G1 X82.885 Y30.215 E.09339
G1 X85.276 Y28.515 E.09335
G1 X88.037 Y27.52 E.09338
G1 X89.866 Y27.291 E.05865
G1 X270.71 Y20.215 E5.75848
G1 X398.774 Y20.12 E4.07473
G1 X401.681 Y20.518 E.09336
G1 X404.375 Y21.683 E.09339
G1 X406.655 Y23.529 E.09334
G1 X408.356 Y25.921 E.09339
G1 X409.351 Y28.682 E.09338
G1 X409.588 Y30.934 E.07205
G1 X409.588 Y205.934 E5.56813
G1 X403.932 Y267.677 E1.97276
G1 X403.268 Y270.536 E.09339
G1 X401.86 Y273.11 E.09335
G1 X399.812 Y275.212 E.09338
G1 X396.323 Y277.025 E.12511
G1 X269.664 Y315.719 E4.21389
G1 X266.504 Y316.191 E.10166
G1 X91.504 Y316.191 E5.56813
G1 X88.597 Y315.793 E.09336
G1 X85.903 Y314.628 E.09339
G1 X83.623 Y312.782 E.09334
G1 X81.922 Y310.39 E.09339
G1 X80.927 Y307.629 E.09338
G1 X80.69 Y305.446 E.06987
G1 X79.816 Y167.902 E4.37645
G1 X79.475 Y98.15 E2.21939
G1 X79.475 Y38.097 E1.91076
G1 X79.873 Y35.19 E.09336
G1 X80.081 Y34.709 E.01667
M204 S3000
G1 X80.446 Y34.87 F15000
M204 S1000
G1 F3600
G1 X81.444 Y32.613 E.07852
G1 X83.284 Y30.4 E.09157
G1 X85.661 Y28.776 E.0916
G1 X88.391 Y27.864 E.09158
G1 X89.882 Y27.698 E.04773
G1 X270.726 Y20.622 E5.75848
G1 X398.774 Y20.527 E4.07422
G1 X401.625 Y20.925 E.09159
G1 X404.257 Y22.089 E.09157
G1 X406.471 Y23.929 E.0916
G1 X408.095 Y26.305 E.09157
G1 X409.006 Y29.036 E.0916
G1 X409.181 Y30.934 E.06065
G1 X409.181 Y205.934 E5.56813
G1 X403.526 Y267.64 E1.97158
G1 X402.868 Y270.442 E.09158
G1 X401.467 Y272.956 E.09157
G1 X399.431 Y274.991 E.09159
G1 X396.204 Y276.636 E.11525
G1 X269.545 Y315.33 E4.21389
G1 X266.504 Y315.784 E.09783
G1 X91.504 Y315.784 E5.56813
G1 X88.653 Y315.386 E.09159
G1 X86.021 Y314.222 E.09157
G1 X83.807 Y312.382 E.0916
G1 X82.183 Y310.006 E.09157
G1 X81.272 Y307.275 E.0916
G1 X81.097 Y305.443 E.05856
G1 X80.223 Y167.899 E4.37645
G1 X79.882 Y98.097 E2.22098
M73 P0 R88
G1 X79.882 Y38.097 E1.90907
G1 X80.28 Y35.246 E.09159
G1 X80.422 Y34.925 E.01117
M204 S3000
; printing object compomantestvisiitkaart id:1 copy 0
;WIPE_START
G1 F12000
G1 X81.444 Y32.613 E-.48028
G1 X83.284 Y30.4 E-.54682
G1 X84.035 Y29.887 E-.1729
;WIPE_END
G1 X91.021 Y38.829 F15000
G1 E1.2 F2400
M204 S1000
;TYPE:Perimeter
;WIDTH:0.449999
G1 F3600
G1 X264.557 Y38.829 E5.52154
G1 X264.557 Y97.365 E1.86249
G1 X91.021 Y97.365 E5.52154
G1 X91.021 Y38.889 E1.86058
M204 S3000
M73 C80
G1 X90.614 Y38.422 F15000
M204 S1000
;TYPE:External perimeter
G1 F3600
G1 X264.964 Y38.422 E5.54744
G1 X264.964 Y97.772 E1.88839
G1 X90.614 Y97.772 E5.54744
M73 P1 R88
G1 X90.614 Y38.482 E1.88648
M204 S3000
G1 X91.012 Y38.466 F15000
;WIPE_START
G1 F12000
G1 X96.93 Y38.48 E-1.2
;WIPE_END
G1 X263.583 Y38.98 F15000
G1 E1.2 F2400
M204 S1000
;TYPE:Solid infill
;WIDTH:0.450211
G1 F3600
G1 X264.223 Y39.62 E.02881
G1 X264.223 Y40.196 E.01834
G1 X263.19 Y39.163 E.04651
G1 X262.614 Y39.163 E.01834
G1 X264.223 Y40.772 E.07244
G1 X264.223 Y41.348 E.01834
G1 X262.038 Y39.163 E.09837
G1 X261.462 Y39.163 E.01834
G1 X264.223 Y41.924 E.1243
G1 X264.223 Y42.5 E.01834
G1 X260.886 Y39.163 E.15023
G1 X260.31 Y39.163 E.01834
G1 X264.223 Y43.076 E.17617
G1 X264.223 Y43.652 E.01834
G1 X259.734 Y39.163 E.2021
G1 X259.158 Y39.163 E.01834
G1 X264.223 Y44.228 E.22803
G1 X264.223 Y44.804 E.01834
G1 X258.582 Y39.163 E.25396
G1 X258.006 Y39.163 E.01834
G1 X264.223 Y45.38 E.27989
G1 X264.223 Y45.956 E.01834
G1 X257.43 Y39.163 E.30583
G1 X256.854 Y39.163 E.01834
G1 X264.223 Y46.532 E.33176
G1 X264.223 Y47.108 E.01834
G1 X256.278 Y39.163 E.35769
G1 X255.702 Y39.163 E.01834
G1 X264.223 Y47.684 E.38362
G1 X264.223 Y48.26 E.01834
G1 X255.126 Y39.163 E.40955
G1 X254.55 Y39.163 E.01834
G1 X264.223 Y48.836 E.43548
G1 X264.223 Y49.412 E.01834
G1 X253.974 Y39.163 E.46142
G1 X253.398 Y39.163 E.01834
G1 X264.223 Y49.988 E.48735
G1 X264.223 Y50.564 E.01834
G1 X252.822 Y39.163 E.51328
G1 X252.246 Y39.163 E.01834
G1 X264.223 Y51.14 E.53921
G1 X264.223 Y51.716 E.01834
G1 X251.67 Y39.163 E.56514
G1 X251.094 Y39.163 E.01834
G1 X264.223 Y52.292 E.59108
G1 X264.223 Y52.868 E.01834
G1 X250.518 Y39.163 E.61701
G1 X249.942 Y39.163 E.01834
G1 X264.223 Y53.444 E.64294
G1 X264.223 Y54.02 E.01834
G1 X249.366 Y39.163 E.66887
G1 X248.79 Y39.163 E.01834
G1 X264.223 Y54.596 E.6948
G1 X264.223 Y55.172 E.01834
G1 X248.214 Y39.163 E.72074
G1 X247.638 Y39.163 E.01834
G1 X264.223 Y55.748 E.74667
G1 X264.223 Y56.324 E.01834
G1 X247.062 Y39.163 E.7726
G1 X246.486 Y39.163 E.01834
G1 X264.223 Y56.9 E.79853
G1 X264.223 Y57.476 E.01834
G1 X245.91 Y39.163 E.82446
G1 X245.334 Y39.163 E.01834
G1 X264.223 Y58.052 E.85039
G1 X264.223 Y58.628 E.01834
G1 X244.758 Y39.163 E.87633
G1 X244.182 Y39.163 E.01834
G1 X264.223 Y59.204 E.90226
G1 X264.223 Y59.78 E.01834
G1 X243.606 Y39.163 E.92819
G1 X243.03 Y39.163 E.01834
G1 X264.223 Y60.356 E.95412
G1 X264.223 Y60.932 E.01834
G1 X242.454 Y39.163 E.98005
G1 X241.878 Y39.163 E.01834
G1 X264.223 Y61.508 E1.00599
G1 X264.223 Y62.084 E.01834
G1 X241.302 Y39.163 E1.03192
G1 X240.726 Y39.163 E.01834
G1 X264.223 Y62.66 E1.05785
G1 X264.223 Y63.236 E.01834
G1 X240.15 Y39.163 E1.08378
G1 X239.574 Y39.163 E.01834
G1 X264.223 Y63.812 E1.10971
G1 X264.223 Y64.388 E.01834
G1 X238.998 Y39.163 E1.13565
G1 X238.422 Y39.163 E.01834
G1 X264.223 Y64.964 E1.16158
G1 X264.223 Y65.54 E.01834
G1 X237.846 Y39.163 E1.18751
G1 X237.27 Y39.163 E.01834
G1 X264.223 Y66.116 E1.21344
G1 X264.223 Y66.692 E.01834
G1 X236.694 Y39.163 E1.23937
G1 X236.118 Y39.163 E.01834
G1 X264.223 Y67.268 E1.26531
G1 X264.223 Y67.844 E.01834
G1 X235.542 Y39.163 E1.29124
G1 X234.966 Y39.163 E.01834
G1 X264.223 Y68.42 E1.31717
G1 X264.223 Y68.996 E.01834
G1 X234.39 Y39.163 E1.3431
G1 X233.814 Y39.163 E.01834
G1 X264.223 Y69.572 E1.36903
G1 X264.223 Y70.148 E.01834
G1 X233.238 Y39.163 E1.39496
G1 X232.662 Y39.163 E.01834
G1 X264.223 Y70.724 E1.4209
G1 X264.223 Y71.3 E.01834
G1 X232.086 Y39.163 E1.44683
G1 X231.51 Y39.163 E.01834
G1 X264.223 Y71.876 E1.47276
G1 X264.223 Y72.452 E.01834
G1 X230.934 Y39.163 E1.49869
G1 X230.358 Y39.163 E.01834
G1 X264.223 Y73.028 E1.52462
G1 X264.223 Y73.604 E.01834
G1 X229.782 Y39.163 E1.55056
G1 X229.206 Y39.163 E.01834
G1 X264.223 Y74.18 E1.57649
G1 X264.223 Y74.756 E.01834
G1 X228.63 Y39.163 E1.60242
G1 X228.054 Y39.163 E.01834
G1 X264.223 Y75.332 E1.62835
G1 X264.223 Y75.908 E.01834
G1 X227.478 Y39.163 E1.65428
G1 X226.902 Y39.163 E.01834
G1 X264.223 Y76.484 E1.68022
G1 X264.223 Y77.06 E.01834
G1 X226.326 Y39.163 E1.70615
G1 X225.75 Y39.163 E.01834
G1 X264.223 Y77.636 E1.73208
G1 X264.223 Y78.212 E.01834
G1 X225.174 Y39.163 E1.75801
G1 X224.598 Y39.163 E.01834
G1 X264.223 Y78.788 E1.78394
G1 X264.223 Y79.364 E.01834
G1 X224.022 Y39.163 E1.80987
G1 X223.446 Y39.163 E.01834
G1 X264.223 Y79.94 E1.83581
G1 X264.223 Y80.516 E.01834
G1 X222.87 Y39.163 E1.86174
M73 P1 R87
G1 X222.294 Y39.163 E.01834
G1 X264.223 Y81.092 E1.88767
G1 X264.223 Y81.668 E.01834
G1 X221.718 Y39.163 E1.9136
G1 X221.142 Y39.163 E.01834
G1 X264.223 Y82.244 E1.93953
G1 X264.223 Y82.82 E.01834
G1 X220.566 Y39.163 E1.96547
G1 X219.99 Y39.163 E.01834
G1 X264.223 Y83.396 E1.9914
G1 X264.223 Y83.972 E.01834
G1 X219.414 Y39.163 E2.01733
G1 X218.838 Y39.163 E.01834
G1 X264.223 Y84.548 E2.04326
M73 P2 R87
G1 X264.223 Y85.124 E.01834
G1 X218.262 Y39.163 E2.06919
M73 C79
G1 X217.686 Y39.163 E.01834
G1 X264.223 Y85.7 E2.09513
G1 X264.223 Y86.276 E.01834
G1 X217.11 Y39.163 E2.12106
G1 X216.534 Y39.163 E.01834
G1 X264.223 Y86.851 E2.14697
G1 X264.223 Y87.427 E.01834
G1 X215.958 Y39.163 E2.1729
G1 X215.383 Y39.163 E.0183
G1 X264.223 Y88.003 E2.19881
G1 X264.223 Y88.579 E.01834
G1 X214.807 Y39.163 E2.22474
G1 X214.231 Y39.163 E.01834
G1 X264.223 Y89.155 E2.25067
G1 X264.223 Y89.731 E.01834
G1 X213.655 Y39.163 E2.2766
G1 X213.079 Y39.163 E.01834
G1 X264.223 Y90.307 E2.30254
G1 X264.223 Y90.883 E.01834
G1 X212.503 Y39.163 E2.32847
G1 X211.927 Y39.163 E.01834
G1 X264.223 Y91.459 E2.3544
G1 X264.223 Y92.035 E.01834
G1 X211.351 Y39.163 E2.38033
G1 X210.775 Y39.163 E.01834
G1 X264.223 Y92.611 E2.40626
G1 X264.223 Y93.187 E.01834
G1 X210.199 Y39.163 E2.4322
G1 X209.623 Y39.163 E.01834
G1 X264.223 Y93.763 E2.45813
G1 X264.223 Y94.339 E.01834
G1 X209.047 Y39.163 E2.48406
G1 X208.471 Y39.163 E.01834
G1 X264.223 Y94.915 E2.50999
G1 X264.223 Y95.491 E.01834
G1 X207.895 Y39.163 E2.53592
G1 X207.319 Y39.163 E.01834
G1 X264.223 Y96.067 E2.56185
G1 X264.223 Y96.643 E.01834
G1 X206.743 Y39.163 E2.58779
G1 X206.167 Y39.163 E.01834
G1 X264.035 Y97.031 E2.60525
G1 X263.459 Y97.031 E.01834
G1 X205.591 Y39.163 E2.60525
G1 X205.015 Y39.163 E.01834
G1 X262.883 Y97.031 E2.60525
G1 X262.307 Y97.031 E.01834
G1 X204.439 Y39.163 E2.60525
G1 X203.863 Y39.163 E.01834
G1 X261.731 Y97.031 E2.60525
G1 X261.155 Y97.031 E.01834
G1 X203.287 Y39.163 E2.60525
G1 X202.711 Y39.163 E.01834
G1 X260.579 Y97.031 E2.60525
G1 X260.003 Y97.031 E.01834
G1 X202.135 Y39.163 E2.60525
G1 X201.559 Y39.163 E.01834
G1 X259.427 Y97.031 E2.60525
G1 X258.851 Y97.031 E.01834
G1 X200.983 Y39.163 E2.60525
G1 X200.407 Y39.163 E.01834
G1 X258.275 Y97.031 E2.60525
G1 X257.699 Y97.031 E.01834
G1 X199.831 Y39.163 E2.60525
G1 X199.255 Y39.163 E.01834
G1 X257.123 Y97.031 E2.60525
G1 X256.547 Y97.031 E.01834
G1 X198.679 Y39.163 E2.60525
G1 X198.103 Y39.163 E.01834
G1 X255.971 Y97.031 E2.60525
G1 X255.395 Y97.031 E.01834
G1 X197.527 Y39.163 E2.60525
G1 X196.951 Y39.163 E.01834
G1 X254.819 Y97.031 E2.60525
M73 P2 R86
G1 X254.243 Y97.031 E.01834
G1 X196.375 Y39.163 E2.60525
G1 X195.799 Y39.163 E.01834
M73 P3 R86
G1 X253.667 Y97.031 E2.60525
G1 X253.091 Y97.031 E.01834
G1 X195.223 Y39.163 E2.60525
G1 X194.647 Y39.163 E.01834
G1 X252.515 Y97.031 E2.60525
G1 X251.939 Y97.031 E.01834
G1 X194.071 Y39.163 E2.60525
G1 X193.495 Y39.163 E.01834
G1 X251.363 Y97.031 E2.60525
G1 X250.787 Y97.031 E.01834
G1 X192.919 Y39.163 E2.60525
M73 C78
G1 X192.343 Y39.163 E.01834
G1 X250.211 Y97.031 E2.60525
G1 X249.635 Y97.031 E.01834
G1 X191.767 Y39.163 E2.60525
G1 X191.191 Y39.163 E.01834
G1 X249.059 Y97.031 E2.60525
G1 X248.483 Y97.031 E.01834
G1 X190.615 Y39.163 E2.60525
G1 X190.039 Y39.163 E.01834
G1 X247.907 Y97.031 E2.60525
G1 X247.331 Y97.031 E.01834
G1 X189.463 Y39.163 E2.60525
G1 X188.887 Y39.163 E.01834
G1 X246.755 Y97.031 E2.60525
G1 X246.179 Y97.031 E.01834
G1 X188.311 Y39.163 E2.60525
G1 X187.735 Y39.163 E.01834
G1 X245.603 Y97.031 E2.60525
G1 X245.027 Y97.031 E.01834
G1 X187.159 Y39.163 E2.60525
G1 X186.583 Y39.163 E.01834
G1 X244.451 Y97.031 E2.60525
G1 X243.875 Y97.031 E.01834
G1 X186.007 Y39.163 E2.60525
G1 X185.431 Y39.163 E.01834
G1 X243.299 Y97.031 E2.60525
G1 X242.723 Y97.031 E.01834
G1 X184.855 Y39.163 E2.60525
G1 X184.279 Y39.163 E.01834
G1 X242.147 Y97.031 E2.60525
G1 X241.571 Y97.031 E.01834
G1 X183.703 Y39.163 E2.60525
G1 X183.127 Y39.163 E.01834
G1 X240.995 Y97.031 E2.60525
G1 X240.419 Y97.031 E.01834
G1 X182.551 Y39.163 E2.60525
G1 X181.975 Y39.163 E.01834
G1 X239.843 Y97.031 E2.60525
G1 X239.267 Y97.031 E.01834
G1 X181.399 Y39.163 E2.60525
G1 X180.823 Y39.163 E.01834
G1 X238.691 Y97.031 E2.60525
G1 X238.115 Y97.031 E.01834
G1 X180.247 Y39.163 E2.60525
G1 X179.671 Y39.163 E.01834
G1 X237.539 Y97.031 E2.60525
G1 X236.963 Y97.031 E.01834
G1 X179.095 Y39.163 E2.60525
G1 X178.519 Y39.163 E.01834
G1 X236.387 Y97.031 E2.60525
G1 X235.811 Y97.031 E.01834
G1 X177.943 Y39.163 E2.60525
G1 X177.367 Y39.163 E.01834
G1 X235.235 Y97.031 E2.60525
G1 X234.659 Y97.031 E.01834
G1 X176.791 Y39.163 E2.60525
G1 X176.215 Y39.163 E.01834
G1 X234.083 Y97.031 E2.60525
G1 X233.507 Y97.031 E.01834
G1 X175.639 Y39.163 E2.60525
G1 X175.063 Y39.163 E.01834
G1 X232.931 Y97.031 E2.60525
G1 X232.355 Y97.031 E.01834
G1 X174.487 Y39.163 E2.60525
M73 P4 R86
G1 X173.911 Y39.163 E.01834
G1 X231.779 Y97.031 E2.60525
G1 X231.203 Y97.031 E.01834
G1 X173.335 Y39.163 E2.60525
G1 X172.759 Y39.163 E.01834
G1 X230.627 Y97.031 E2.60525
M73 P4 R85
G1 X230.051 Y97.031 E.01834
G1 X172.183 Y39.163 E2.60525
G1 X171.607 Y39.163 E.01834
G1 X229.475 Y97.031 E2.60525
G1 X228.899 Y97.031 E.01834
G1 X171.031 Y39.163 E2.60525
G1 X170.455 Y39.163 E.01834
G1 X228.323 Y97.031 E2.60525
G1 X227.747 Y97.031 E.01834
G1 X169.879 Y39.163 E2.60525
G1 X169.303 Y39.163 E.01834
G1 X227.171 Y97.031 E2.60525
M73 C77
G1 X226.595 Y97.031 E.01834
G1 X168.727 Y39.163 E2.60525
G1 X168.151 Y39.163 E.01834
G1 X226.019 Y97.031 E2.60525
G1 X225.443 Y97.031 E.01834
G1 X167.575 Y39.163 E2.60525
G1 X166.999 Y39.163 E.01834
G1 X224.867 Y97.031 E2.60525
G1 X224.291 Y97.031 E.01834
G1 X166.423 Y39.163 E2.60525
G1 X165.847 Y39.163 E.01834
G1 X223.715 Y97.031 E2.60525
G1 X223.139 Y97.031 E.01834
G1 X165.271 Y39.163 E2.60525
G1 X164.695 Y39.163 E.01834
G1 X222.563 Y97.031 E2.60525
G1 X221.987 Y97.031 E.01834
G1 X164.119 Y39.163 E2.60525
G1 X163.543 Y39.163 E.01834
G1 X221.411 Y97.031 E2.60525
G1 X220.835 Y97.031 E.01834
G1 X162.967 Y39.163 E2.60525
G1 X162.391 Y39.163 E.01834
G1 X220.259 Y97.031 E2.60525
G1 X219.683 Y97.031 E.01834
G1 X161.815 Y39.163 E2.60525
G1 X161.239 Y39.163 E.01834
G1 X219.107 Y97.031 E2.60525
G1 X218.531 Y97.031 E.01834
G1 X160.663 Y39.163 E2.60525
G1 X160.087 Y39.163 E.01834
G1 X217.955 Y97.031 E2.60525
G1 X217.379 Y97.031 E.01834
G1 X159.511 Y39.163 E2.60525
G1 X158.935 Y39.163 E.01834
G1 X216.803 Y97.031 E2.60525
G1 X216.227 Y97.031 E.01834
G1 X158.359 Y39.163 E2.60525
G1 X157.783 Y39.163 E.01834
G1 X215.651 Y97.031 E2.60525
G1 X215.075 Y97.031 E.01834
G1 X157.207 Y39.163 E2.60525
G1 X156.631 Y39.163 E.01834
G1 X214.499 Y97.031 E2.60525
G1 X213.923 Y97.031 E.01834
G1 X156.055 Y39.163 E2.60525
G1 X155.479 Y39.163 E.01834
G1 X213.347 Y97.031 E2.60525
G1 X212.771 Y97.031 E.01834
G1 X154.903 Y39.163 E2.60525
G1 X154.327 Y39.163 E.01834
G1 X212.195 Y97.031 E2.60525
G1 X211.619 Y97.031 E.01834
G1 X153.751 Y39.163 E2.60525
G1 X153.175 Y39.163 E.01834
G1 X211.043 Y97.031 E2.60525
M73 P5 R85
G1 X210.467 Y97.031 E.01834
G1 X152.599 Y39.163 E2.60525
G1 X152.023 Y39.163 E.01834
G1 X209.891 Y97.031 E2.60525
G1 X209.315 Y97.031 E.01834
G1 X151.447 Y39.163 E2.60525
G1 X150.871 Y39.163 E.01834
G1 X208.739 Y97.031 E2.60525
G1 X208.163 Y97.031 E.01834
G1 X150.295 Y39.163 E2.60525
G1 X149.719 Y39.163 E.01834
G1 X207.587 Y97.031 E2.60525
G1 X207.011 Y97.031 E.01834
G1 X149.143 Y39.163 E2.60525
M73 P5 R84
G1 X148.567 Y39.163 E.01834
G1 X206.435 Y97.031 E2.60525
G1 X205.859 Y97.031 E.01834
G1 X147.991 Y39.163 E2.60525
G1 X147.415 Y39.163 E.01834
G1 X205.283 Y97.031 E2.60525
G1 X204.707 Y97.031 E.01834
G1 X146.839 Y39.163 E2.60525
G1 X146.263 Y39.163 E.01834
G1 X204.131 Y97.031 E2.60525
